X: 99
T:Missa Malheur me bat / Sanctus
N: Derived from Jos0901d-Missa_Malheur_me_bat-Sanctus.krn
C: Josquin des Prez
%%abc-version 2.0
%%abcx-abcm2ps-target-version 5.9.1 (29 Sep 2008)
%%abc-creator hum2abc beta
%%abcx-conversion-date 2019/02/12 16:15:43
%%abc-edited-by Jesse Rodin
%%abc-edited-by Jesse Rodin; Victoria Chang 2011/05/08
%%abcx-initial-encoding-date 2011/05/08/
%%humdrum-veritas 1826839788
%%humdrum-veritas-data 3253291878
%%linebreak <none>
%%barnumbers 0
L: 1/4
M: 4/2
Q: 1/2=120
%%staves [1 2 3 4]
V: 1 clef=treble
V: 2 clef=treble-8
V: 3 clef=treble-8
V: 4 clef=bass
K: C
[V:1] z8 | 
[V:2] e8 | 
[V:3] E8 | 
[V:4] z8 | 
[V:1] z8 | 
[V:2] d6cB | 
[V:3] B4B4 | 
[V:4] z8 | 
[V:1] E8 | 
[V:2] A4A4 | 
[V:3] c4c4 | 
[V:4] z8 | 
[V:1] B4B4 | 
[V:2] G2d3Be2- | 
[V:3] B4G4 | 
[V:4] z8 | 
[V:1] c4c4 | 
[V:2] edcBc4 | 
[V:3] A4A4 | 
[V:4] z8 | 
[V:1] B4G4 | 
[V:2] d4B4 | 
[V:3] G6E2 | 
[V:4] z8 | 
[V:1] A4A4 | 
[V:2] A2c4d2 | 
[V:3] F4F4 | 
[V:4] z8 | 
[V:1] G3AB2E2- | 
[V:2] e3dB2c2- | 
[V:3] E3FG2A2- | 
[V:4] z8 | 
[V:1] EFG2A2E2 | 
[V:2] cde2A2B2 | 
[V:3] A2E2F2G2 | 
[V:4] z8 | 
[V:1] F2E4D2 | 
[V:2] c2B4A2 | 
[V:3] A2E2F4 | 
[V:4] z8 | 
[V:1] E4z4 | 
[V:2] B4z2e2- | 
[V:3] z2E3FG2 | 
[V:4] E,3F,G,2E,2- | 
[V:1] G8 | 
[V:2] edB2c4 | 
[V:3] E3FG2C2 | 
[V:4] E,F,G,2C,4 | 
[V:1] C2c2B2G2- | 
[V:2] A4G2E2- | 
[V:3] c4d2e2- | 
[V:4] z8 | 
[V:1] G2FED4 | 
[V:2] E2F2G4 | 
[V:3] edc4B2 | 
[V:4] z8 | 
[V:1] G8 | 
[V:2] C4z4 | 
[V:3] c2e2d2e2- | 
[V:4] E,3F,G,2E,2- | 
[V:1] G4G4- | 
[V:2] C4G3A | 
[V:3] e6e2 | 
[V:4] E,F,G,2C,4 | 
[V:1] G4G4 | 
[V:2] B2E2z2E2 | 
[V:3] d2e2c2e2- | 
[V:4] z8 | 
[V:1] G8 | 
[V:2] G3ABAGF | 
[V:3] e2e2d2e2- | 
[V:4] E,3F,G,2E,2- | 
[V:1] G4z2c2- | 
[V:2] E3FG2A2- | 
[V:3] e2e3dcB | 
[V:4] E,F,G,2C,4 | 
[V:1] cBB3AA2- | 
[V:2] A2G2A4 | 
[V:3] A2e4c2 | 
[V:4] z8 | 
[V:1] AGGFA2D2 | 
[V:2] E4c2B2 | 
[V:3] B4A2G2- | 
[V:4] z2E,2F,2G,2 | 
[V:1] E3FG4- | 
[V:2] c2A2G4 | 
[V:3] GAc2B2e2- | 
[V:4] C,4z4 | 
[V:1] G2A4F2 | 
[V:2] E2F2D4 | 
[V:3] edc3B/A/BA | 
[V:4] z8 | 
[V:1] G2E2D4 | 
[V:2] C2c4B2 | 
[V:3] c4z2d2 | 
[V:4] z2E,2F,2G,2 | 
[V:1] z2E3FG2 | 
[V:2] c2A2E4 | 
[V:3] e3fg2G2 | 
[V:4] C,4z4 | 
[V:1] C2E3FG2 | 
[V:2] F2E2G4 | 
[V:3] A2c4B2 | 
[V:4] z2C,3D,E,2 | 
[V:1] C2c3BA2 | 
[V:2] A2E2F4 | 
[V:3] c2e4d2 | 
[V:4] A,,4z4 | 
[V:1] G8- | 
[V:2] E8- | 
[V:3] e3dc2B2 | 
[V:4] z2E,3F,G,2 | 
[V:1] G4z4 | 
[V:2] E8- | 
[V:3] e2E2G3A | 
[V:4] C,2G,3A,B,2 | 
[V:1] G3AB2E2- | 
[V:2] E8 | 
[V:3] B2c2B2c2- | 
[V:4] E,3F,G,2C,2- | 
[V:1] EFG2C2c2 | 
[V:2] z4E4 | 
[V:3] cBG2z2A2- | 
[V:4] C,D,E,2A,,4 | 
[V:1] A2c4A2 | 
[V:2] F4F4 | 
[V:3] A2A2c3d | 
[V:4] z8 | 
[V:1] c2B3AGF | 
[V:2] E3FG2C2- | 
[V:3] e4E3F | 
[V:4] z2E,3F,G,2 | 
[V:1] E4z2G2- | 
[V:2] CDEFG3A | 
[V:3] G2C2E3F | 
[V:4] C,4z2E,2- | 
[V:1] GFD2E2D2- | 
[V:2] B4c2B2- | 
[V:3] G4z2G2 | 
[V:4] E,F,G,2C,2G,2- | 
[V:1] D2F3EDC | 
[V:2] B2AGA4 | 
[V:3] B2c2d4 | 
[V:4] G,2F,E,D,4 | 
[V:1] B,2C4B,2 | 
[V:2] G2FED4 | 
[V:3] z4d4 | 
[V:4] G,,8 | 
[V:1] C8 | 
[V:2] C4F4 | 
[V:3] e3dcAc2- | 
[V:4] z2G,2A,2F,2 | 
[V:1] z2G2A2F2 | 
[V:2] E2G2F2A2 | 
[V:3] cBG2d2D2 | 
[V:4] G,2E,2D,4 | 
[V:1] G4c4 | 
[V:2] G2G4F2 | 
[V:3] EDd2c2A2 | 
[V:4] G,,4A,,4 | 
[V:1] B2G2B2A2- | 
[V:2] G2E2D4 | 
[V:3] B3cd4- | 
[V:4] G,,2G,4F,2 | 
[V:1] AGG4^F2 | 
[V:2] z4D4 | 
[V:3] d4z2d2 | 
[V:4] G,4A,4 | 
[V:1] G3FD2E2- | 
[V:2] E3FG2E2 | 
[V:3] B2G2B2c2 | 
[V:4] G,4z4 | 
[V:1] E2D2E2G2- | 
[V:2] F4E3F | 
[V:3] A3Bc2GA | 
[V:4] z8 | 
[V:1] G2F2A3G | 
[V:2] G2D3EFG | 
[V:3] Bcd2A3B | 
[V:4] z8 | 
[V:1] E2c2B2d2- | 
[V:2] A3GE2D2 | 
[V:3] cdefg2f2- | 
[V:4] z8 | 
[V:1] dcc4B2 | 
[V:2] F2A2G4 | 
[V:3] fec2d4 | 
[V:4] z4z2G,,2 | 
[V:1] c2A2GEA2 | 
[V:2] C3DE2F2 | 
[V:3] c8- | 
[V:4] A,,3B,,C,2F,,2 | 
[V:1] G2c3BGA | 
[V:2] G2A3Bc2 | 
[V:3] c4z2e2- | 
[V:4] C,8 | 
[V:1] B2d2c2e2- | 
[V:2] G2B2A2c2- | 
[V:3] e2d2f2e2- | 
[V:4] z2G,2A,3B, | 
[V:1] e2c2e2d2- | 
[V:2] cBA2c2B2- | 
[V:3] e2a2geg2- | 
[V:4] C4z2G,2- | 
[V:1] d2c3B/A/B2 | 
[V:2] B2c2G4 | 
[V:3] gfe2d4 | 
[V:4] G,2A,2B,2G,2- | 
[V:1] E2C2D2F2 | 
[V:2] E2F2D4 | 
[V:3] z8 | 
[V:4] G,2A,4B,2 | 
[V:1] EDF3EE2- | 
[V:2] C2F4G2 | 
[V:3] z8 | 
[V:4] C2A,3G,E,2 | 
[V:1] E2D2E4 | 
[V:2] A4B2A2 | 
[V:3] z2a2g2a2 | 
[V:4] F,4E,2C2- | 
[V:1] z2E2F2G2 | 
[V:2] c4d2e2- | 
[V:3] e2a4g2- | 
[V:4] CB,A,G,F,2E,2 | 
[V:1] C4D2C2 | 
[V:2] e2dcB2c2- | 
[V:3] gef2g2e2 | 
[V:4] A,4G,2A,2- | 
[V:1] c2B2A4 | 
[V:2] cBG2A4 | 
[V:3] z2e3cd2 | 
[V:4] A,G,E,2F,4 | 
[V:1] G8 ||  
[V:2] B8 ||  
[V:3] e8 ||  
[V:4] E,8 ||  
[V:1]  [K:C] [K:clef=treble][M:2/1]G8 | 
[V:2]  [K:C] [K:clef=treble-8][M:2/1]e8 | 
[V:3]  [K:C] [K:clef=treble-8][M:2/1]z8 | 
[V:4]  [K:C] [K:clef=bass][M:2/1]z8 | 
[V:1] A4B4 | 
[V:2] d6cB | 
[V:3] z8 | 
[V:4] z8 | 
[V:1] c6BA | 
[V:2] A4A4 | 
[V:3] z8 | 
[V:4] z8 | 
[V:1] B8 | 
[V:2] G2d3Be2- | 
[V:3] z8 | 
[V:4] z8 | 
[V:1] z4E4 | 
[V:2] edcBc4 | 
[V:3] z8 | 
[V:4] z8 | 
[V:1] F4G4 | 
[V:2] d4B4 | 
[V:3] z8 | 
[V:4] z8 | 
[V:1] A6GF | 
[V:2] A2c4d2 | 
[V:3] z8 | 
[V:4] z8 | 
[V:1] G8 | 
[V:2] e3dB2c2- | 
[V:3] z8 | 
[V:4] z8 | 
[V:1] c6B2 | 
[V:2] cde2A2B2 | 
[V:3] z8 | 
[V:4] z8 | 
[V:1] A4G2A2- | 
[V:2] c2B4A2 | 
[V:3] z8 | 
[V:4] z8 | 
[V:1] A2G2A2c2 | 
[V:2] B4z2e2- | 
[V:3] z8 | 
[V:4] z8 | 
[V:1] B4z2E2- | 
[V:2] edB2c4 | 
[V:3] z8 | 
[V:4] z8 | 
[V:1] E2F2G4 | 
[V:2] A4G2E2- | 
[V:3] z8 | 
[V:4] z8 | 
[V:1] C4z4 | 
[V:2] E2F2G4 | 
[V:3] z8 | 
[V:4] z8 | 
[V:1] G4E2G2- | 
[V:2] C4z4 | 
[V:3] z8 | 
[V:4] z8 | 
[V:1] G2FED2E2 | 
[V:2] C4G3A | 
[V:3] z8 | 
[V:4] z8 | 
[V:1] D2G2E2G2- | 
[V:2] B2E2z2E2 | 
[V:3] z8 | 
[V:4] z8 | 
[V:1] G2FED2E2- | 
[V:2] G3ABAGF | 
[V:3] z8 | 
[V:4] z8 | 
[V:1] E2DCB,2A,2 | 
[V:2] E3FG2A2- | 
[V:3] z8 | 
[V:4] z8 | 
[V:1] B,4A,2C2- | 
[V:2] A2^G2A4 | 
[V:3] z8 | 
[V:4] z8 | 
[V:1] CB,E4D2 | 
[V:2] E4c2B2 | 
[V:3] z8 | 
[V:4] z8 | 
[V:1] E2C2E2D2- | 
[V:2] c2A2G4 | 
[V:3] z8 | 
[V:4] z8 | 
[V:1] D2C2D2F2- | 
[V:2] E2F2D4 | 
[V:3] z8 | 
[V:4] z8 | 
[V:1] F2E3CD2 | 
[V:2] C2c4B2 | 
[V:3] z8 | 
[V:4] z8 | 
[V:1] E3FG2C2- | 
[V:2] c2A2E4 | 
[V:3] z8 | 
[V:4] z8 | 
[V:1] C2G3FED | 
[V:2] F2E2G4 | 
[V:3] z8 | 
[V:4] z8 | 
[V:1] F2E4D2 | 
[V:2] A2E2F4 | 
[V:3] z8 | 
[V:4] z8 | 
[V:1] E8 | 
[V:2] E8- | 
[V:3] z8 | 
[V:4] z8 | 
[V:1] z4E4 | 
[V:2] E8- | 
[V:3] z8 | 
[V:4] z8 | 
[V:1] G4F2E2- | 
[V:2] E8 | 
[V:3] z8 | 
[V:4] z8 | 
[V:1] E2DCB,2E2- | 
[V:2] z4E4 | 
[V:3] z8 | 
[V:4] z8 | 
[V:1] E2D2A4 | 
[V:2] F4F4 | 
[V:3] z8 | 
[V:4] z8 | 
[V:1] G4z2G2 | 
[V:2] E3FG2C2- | 
[V:3] z8 | 
[V:4] z8 | 
[V:1] E2G4FE | 
[V:2] CDEFG3A | 
[V:3] z8 | 
[V:4] z8 | 
[V:1] D2G,2A,2G,2 | 
[V:2] B4c2B2- | 
[V:3] z8 | 
[V:4] z8 | 
[V:1] G4F2E2- | 
[V:2] B2AGA4 | 
[V:3] z8 | 
[V:4] z8 | 
[V:1] E2DCB,CDB, | 
[V:2] G2FED4 | 
[V:3] z8 | 
[V:4] z8 | 
[V:1] [M:2/1](3:2:2C8D4 | 
[V:2] C4F4 | 
[V:3] z8 | 
[V:4] z8 | 
[V:1] (3E4D4F4 | 
[V:2] E2G2F2A2 | 
[V:3] z8 | 
[V:4] z8 | 
[V:1] (3E4D4F4 | 
[V:2] G2G4F2 | 
[V:3] z8 | 
[V:4] z8 | 
[V:1] (3:2:6E3B,C2D3A,B,2 | 
[V:2] G2E2D4 | 
[V:3] z8 | 
[V:4] z8 | 
[V:1] [M:2/1]C2G,2A,2B,2- | 
[V:2] z4D4 | 
[V:3] z8 | 
[V:4] z8 | 
[V:1] B,2C2B,2C2- | 
[V:2] E3FG2E2 | 
[V:3] z8 | 
[V:4] z8 | 
[V:1] C2B,A,C2B,2- | 
[V:2] F4E3F | 
[V:3] z8 | 
[V:4] z8 | 
[V:1] B,CD2A,3B, | 
[V:2] G2D3EFG | 
[V:3] z8 | 
[V:4] z8 | 
[V:1] CDEFG2A2 | 
[V:2] A3GE2D2 | 
[V:3] z8 | 
[V:4] z8 | 
[V:1] A,B,CDEFG2- | 
[V:2] F2A2G4 | 
[V:3] z8 | 
[V:4] z8 | 
[V:1] G2C4B,A, | 
[V:2] C3DE2F2 | 
[V:3] z8 | 
[V:4] z8 | 
[V:1] B,2A,B,CDEF | 
[V:2] G2A3Bc2 | 
[V:3] z8 | 
[V:4] z8 | 
[V:1] G2DEFGA2 | 
[V:2] G2B2A2c2- | 
[V:3] z8 | 
[V:4] z8 | 
[V:1] A,B,CDEFG2- | 
[V:2] cBA2c2B2- | 
[V:3] z8 | 
[V:4] z8 | 
[V:1] GFEDEDE2- | 
[V:2] B2c2G4 | 
[V:3] z8 | 
[V:4] z8 | 
[V:1] EDC4B,2 | 
[V:2] E2F2D4 | 
[V:3] z8 | 
[V:4] z8 | 
[V:1] C4D2E2- | 
[V:2] C2F4G2 | 
[V:3] z8 | 
[V:4] z8 | 
[V:1] E2F2G2A2- | 
[V:2] A4B2A2 | 
[V:3] z8 | 
[V:4] z8 | 
[V:1] AGE2F2G2 | 
[V:2] c4d2e2- | 
[V:3] z8 | 
[V:4] z8 | 
[V:1] C2G3FED | 
[V:2] e2dcB2c2- | 
[V:3] z8 | 
[V:4] z8 | 
[V:1] EDG4FE | 
[V:2] cBG2A4 | 
[V:3] z8 | 
[V:4] z8 | 
[V:1] D4G,4 | 
[V:2] B8- | 
[V:3] z8 | 
[V:4] z8 | 
[V:1] D8 ||  
[V:2] B8 ||  
[V:3] z8 ||  
[V:4] z8 ||  
[V:1]  [K:C] [K:clef=treble][M:2/1]G4G2G2- | 
[V:2]  [K:C] [K:clef=treble-8][M:2/1]e8 | 
[V:3]  [K:C] [K:clef=treble-8][M:2/1]G3AB2c2 | 
[V:4]  [K:C] [K:clef=bass][M:2/1]E,3F,G,2C,2 | 
[V:1] GFDEFGA2- | 
[V:2] d6cB | 
[V:3] G2B2A3B | 
[V:4] G,3F,D,2F,2- | 
[V:1] AGG4^F2 | 
[V:2] A4A4 | 
[V:3] c2e2d4 | 
[V:4] F,E,C,2D,4 | 
[V:1] [M:3/1]G4z2G4G2 | 
[V:2] [M:3/1]G2d3Be3dcB | 
[V:3] [M:3/1]B4B2c3BG2 | 
[V:4] [M:3/1]G,,4G,,2C,3D,E,2 | 
[V:1] E2A2F2A4G2 | 
[V:2] c4d4B4 | 
[V:3] A4D2f2e4 | 
[V:4] A,,2F,3D,D,2E,4 | 
[V:1] c2A2c2B2G3A | 
[V:2] A2c4d2e3d | 
[V:3] c4A2B4e2 | 
[V:4] A,,2A,4G,2E,3F, | 
[V:1] B2E2A2G2c2B2 | 
[V:2] B2c3de2A2B2 | 
[V:3] d2c2A2B2c2d2 | 
[V:4] G,2A,2F,2E,2A,2G,2 | 
[V:1] A4G2A3^GG^F | 
[V:2] c2B4A2B4 | 
[V:3] A2e3fd2e4 | 
[V:4] A,2E,3D,F,2E,4 | 
[V:1] [M:2/1]A4B4 | 
[V:2] [M:2/1]z2e3dB2 | 
[V:3] [M:2/1]c4B2G2 | 
[V:4] [M:2/1]A,,4E,4 | 
[V:1] E4z2E2 | 
[V:2] c4A4 | 
[V:3] A4c4 | 
[V:4] z2A,,3B,,C,D, | 
[V:1] G4A4 | 
[V:2] G2E4F2 | 
[V:3] B2G2c4 | 
[V:4] E,4A,,4 | 
[V:1] B4E4 | 
[V:2] G4C4 | 
[V:3] B2G2c4- | 
[V:4] E,4z2A,,2- | 
[V:1] c4z2c2 | 
[V:2] z4C4 | 
[V:3] c2BAG2A2 | 
[V:4] A,,B,,C,D,E,2A,,2 | 
[V:1] B2G3AB2 | 
[V:2] G3AB2E2 | 
[V:3] B2E2G3A | 
[V:4] E,8- | 
[V:1] E2G4E2 | 
[V:2] z2E2G3A | 
[V:3] B4E2G2 | 
[V:4] E,8 | 
[V:1] G2E2G3A | 
[V:2] BAGFE3F | 
[V:3] E2G3FE2 | 
[V:4] z2E,3D,C,2 | 
[V:1] B2c2d4 | 
[V:2] G2A4^G2 | 
[V:3] D2E4D2 | 
[V:4] B,,2A,,2B,,4 | 
[V:1] [M:3/1]c4BAG3AB2 | 
[V:2] [M:3/1]A4E4c2B2 | 
[V:3] [M:3/1]E4e2e4d2 | 
[V:4] [M:3/1]A,,4z2E,3F,G,2 | 
[V:1] E2A2D2E2G2F2 | 
[V:2] c2A2G4E2F2 | 
[V:3] c3B/A/B2c3BAG | 
[V:4] A,2F,2G,2E,2C,2D,2- | 
[V:1] A2G2E2C2D4 | 
[V:2] D4C2c4B2 | 
[V:3] F2G3EF2G4 | 
[V:4] D,2B,,2C,2A,,2G,,4 | 
[V:1] C3DEFG2C2E2 | 
[V:2] c2A2E4F2E2 | 
[V:3] C2c4B2A2c2 | 
[V:4] z12 | 
[V:1] D2G3FE4D2 | 
[V:2] G4A2E2F4 | 
[V:3] B3Ac2B4A2 | 
[V:4] z12 | 
[V:1] [M:2/1]E4z4 | 
[V:2] [M:2/1]E8- | 
[V:3] [M:2/1]c4B2c2- | 
[V:4] [M:2/1]z2A,,2G,,2A,,2- | 
[V:1] C4B,2C2- | 
[V:2] E8- | 
[V:3] cBA2G2A2 | 
[V:4] A,,B,,C,D,E,2A,,2- | 
[V:1] CB,A,2G,2A,2- | 
[V:2] E8 | 
[V:3] c4B2A2 | 
[V:4] A,,B,,C,D,E,2A,,2- | 
[V:1] A,B,CA,B,4 | 
[V:2] z4E4 | 
[V:3] c3defg2 | 
[V:4] A,,2A,4^G,2 | 
[V:1] A,4z4 | 
[V:2] F4F4 | 
[V:3] f2e4d2 | 
[V:4] A,4z4 | 
[V:1] [M:3/1]C4B,2A,2C4 | 
[V:2] [M:3/1]E3FG2C3DEF | 
[V:3] [M:3/1]e12 | 
[V:4] [M:3/1]A,,4G,,2A,,3B,,C,D, | 
[V:1] [M:2/1]B,3CD2G,2 | 
[V:2] [M:2/1]G3AB4 | 
[V:3] [M:2/1]z2E2F2E2 | 
[V:4] [M:2/1]E,4D,2E,2 | 
[V:1] A,2G,2D2B,2 | 
[V:2] c2B4AG | 
[V:3] z2E2F2E2- | 
[V:4] A,,2E,2D,2E,2 | 
[V:1] C3DE2F2- | 
[V:2] A4G2FE | 
[V:3] E2c3BA2- | 
[V:4] A,,3B,,C,2D,2 | 
[V:1] F2EDF2E2 | 
[V:2] D4C4 | 
[V:3] A2^G2A4 | 
[V:4] B,,4A,,4 | 
[V:1] [M:3/1]F2C2E2D2F2E2 | 
[V:2] [M:3/1]F4E2G2F2A2 | 
[V:3] [M:3/1]A4G2B2A2c2 | 
[V:4] [M:3/1]z12 | 
[V:1] G3FEDD4C2 | 
[V:2] G2G4F2G2E2 | 
[V:3] B2G2B2A2B2G2 | 
[V:4] z12 | 
[V:1] [M:2/1]F3DE2F2 | 
[V:2] [M:2/1]D4z4 | 
[V:3] [M:2/1]A3Bc2A2 | 
[V:4] [M:2/1]z2D,2C,2D,2 | 
[V:1] D2F2E2C2 | 
[V:2] D4E3F | 
[V:3] B2A2c4 | 
[V:4] B,,2D,2C,2A,,2 | 
[V:1] D2E4D2 | 
[V:2] G2E2F4 | 
[V:3] B2c2A2B2 | 
[V:4] G,,2C,2D,2B,,2 | 
[V:1] E2C2D3E | 
[V:2] E3FG2D2- | 
[V:3] G2A2B3c | 
[V:4] C,2A,,2G,,4 | 
[V:1] FGA2E2A2 | 
[V:2] DEFGA3G | 
[V:3] d2A2c2A2 | 
[V:4] z8 | 
[V:1] [M:3/1]G2F3EC2D4 | 
[V:2] [M:3/1]E2D2F2A2G4 | 
[V:3] [M:3/1]B2d3cc4B2 | 
[V:4] [M:3/1]z12 | 
[V:1] [M:2/1]CDEFG2F2 | 
[V:2] [M:2/1]C3DE2F2 | 
[V:3] [M:2/1]c6A2 | 
[V:4] [M:2/1]z2C,4D,2 | 
[V:1] D2F4E2 | 
[V:2] G2A3Bc2 | 
[V:3] _B2A2F2G2- | 
[V:4] G,,2D,4C,2 | 
[V:1] G2F2A3G | 
[V:2] G2B2A2c2- | 
[V:3] G2d2c2A2 | 
[V:4] E,2D,2F,3E, | 
[V:1] E2A2G3F | 
[V:2] cBA2c2B2- | 
[V:3] c3de2d2 | 
[V:4] C,2F,2E,2G,2- | 
[V:1] D2E4D2 | 
[V:2] B2c2G4 | 
[V:3] g8 | 
[V:4] G,2C,4B,,2 | 
[V:1] E2C2D2F2 | 
[V:2] E2F2D4 | 
[V:3] G2A2F4 | 
[V:4] C,2C4B,2 | 
[V:1] E2C2D3E | 
[V:2] C2F4G2 | 
[V:3] G2A4B2 | 
[V:4] C3B,A,2G,2 | 
[V:1] F2C2D2F2 | 
[V:2] A4B2A2 | 
[V:3] c4F4 | 
[V:4] F,3E,D,4 | 
[V:1] [M:3/1]E2A4G2E2F2 | 
[V:2] [M:3/1]c4d2e4dc | 
[V:3] [M:3/1]G2A4B2c4 | 
[V:4] [M:3/1]C,2F,4E,2A,4 | 
[V:1] G4A2G2E2F2 | 
[V:2] B2c3BG2A4 | 
[V:3] d2e2A2B2c2A2 | 
[V:4] G,2E,2F,2E,2C,2D,2 | 
[V:1] [M:2/1]G3FD2E2 | 
[V:2] [M:2/1]B8- | 
[V:3] [M:2/1]G4z2E2 | 
[V:4] [M:2/1]G,,4G,3A, | 
[V:1] D2E4D2 | 
[V:2] B8- | 
[V:3] G4G4 | 
[V:4] B,2E,2G,4- | 
[V:1] G3FD2E2 | 
[V:2] B8- | 
[V:3] E4z2E2 | 
[V:4] G,2E,2G,3A, | 
[V:1] D2E4D2 | 
[V:2] B8- | 
[V:3] G4G4 | 
[V:4] B,2E,2G,4 | 
[V:1] E8- | 
[V:2] B8- | 
[V:3] E8- | 
[V:4] G,6E,2 | 
[V:1] E8 ||  
[V:2] B8 ||  
[V:3] E8 ||  
[V:4] E,8 ||  
[V:1]  [K:C] [K:clef=treble][M:2/1]z8 | 
[V:2]  [K:C] [K:clef=treble-8][M:2/1]e8 | 
[V:3]  [K:C] [K:clef=treble-8][M:2/1]E4G4- | 
[V:4]  [K:C] [K:clef=bass][M:2/1]z8 | 
[V:1] z8 | 
[V:2] d6cB | 
[V:3] G2A2B4 | 
[V:4] z8 | 
[V:1] z8 | 
[V:2] A4A4 | 
[V:3] c6BA | 
[V:4] z8 | 
[V:1] z8 | 
[V:2] G2d3Be2- | 
[V:3] B4G4 | 
[V:4] z8 | 
[V:1] z8 | 
[V:2] edcBc4 | 
[V:3] A3GE2F2- | 
[V:4] z8 | 
[V:1] z8 | 
[V:2] d4B4 | 
[V:3] FDG4FE | 
[V:4] z8 | 
[V:1] z8 | 
[V:2] A2c4d2 | 
[V:3] F3EFEFG | 
[V:4] z8 | 
[V:1] z8 | 
[V:2] e3dB2c2- | 
[V:3] CDEFG2A2- | 
[V:4] z8 | 
[V:1] z8 | 
[V:2] cde2A2B2 | 
[V:3] AGE2F2G2 | 
[V:4] z8 | 
[V:1] z8 | 
[V:2] c2B4A2 | 
[V:3] C2G4^F2 | 
[V:4] z8 | 
[V:1] z8 ||  
[V:2] B8 ||  
[V:3] G8 ||  
[V:4] z8 ||  
[V:1]  [K:C] [K:clef=treble][M:2/1]z8 | 
[V:2]  [K:C] [K:clef=treble-8][M:2/1]d8 | 
[V:3]  [K:C] [K:clef=treble-8][M:2/1]z8 | 
[V:4]  [K:C] [K:clef=bass][M:2/1]D,4G,4 | 
[V:1] z8 | 
[V:2] c6BA | 
[V:3] z8 | 
[V:4] A,4C4- | 
[V:1] z8 | 
[V:2] G4G4 | 
[V:3] z8 | 
[V:4] C2B,A,B,4 | 
[V:1] z8 | 
[V:2] F2c3Ad2- | 
[V:3] z8 | 
[V:4] A,4F,4 | 
[V:1] z8 | 
[V:2] dcBAB4 | 
[V:3] z8 | 
[V:4] G,3F,D,2G,2 | 
[V:1] z8 | 
[V:2] c4A4 | 
[V:3] z8 | 
[V:4] C,2C4B,A, | 
[V:1] z8 | 
[V:2] G2B4c2 | 
[V:3] z8 | 
[V:4] B,4E,4 | 
[V:1] z8 | 
[V:2] d3cA2B2- | 
[V:3] z8 | 
[V:4] D,2F,4E,2 | 
[V:1] z8 | 
[V:2] Bcd2G2A2 | 
[V:3] z8 | 
[V:4] D,3E,/F,/E,2D,2- | 
[V:1] z8 | 
[V:2] B2A4^G2 | 
[V:3] z8 | 
[V:4] D,C,A,,2B,,4 | 
[V:1] z8 ||  
[V:2] A8 ||  
[V:3] z8 ||  
[V:4] A,,8 ||  
[V:1]  [K:C] [K:clef=treble][M:2/1]A8 | 
[V:2]  [K:C] [K:clef=treble-8][M:2/1]z8 | 
[V:3]  [K:C] [K:clef=treble-8][M:2/1]A4c4- | 
[V:4]  [K:C] [K:clef=bass][M:2/1]z8 | 
[V:1] G6FE | 
[V:2] z8 | 
[V:3] c2d2e4 | 
[V:4] z8 | 
[V:1] D4D4 | 
[V:2] z8 | 
[V:3] f6ed | 
[V:4] z8 | 
[V:1] C2G3EA2- | 
[V:2] z8 | 
[V:3] e4c4 | 
[V:4] z8 | 
[V:1] AGFEF4 | 
[V:2] z8 | 
[V:3] d4d4 | 
[V:4] z8 | 
[V:1] G4E4 | 
[V:2] z8 | 
[V:3] e4c4 | 
[V:4] z8 | 
[V:1] D2F4G2 | 
[V:2] z8 | 
[V:3] d3cA2B2 | 
[V:4] z8 | 
[V:1] A3GE2F2- | 
[V:2] z8 | 
[V:3] A2d2c2d2 | 
[V:4] z8 | 
[V:1] FGA2D2E2 | 
[V:2] z8 | 
[V:3] A3cB2A2- | 
[V:4] z8 | 
[V:1] F2E4D2 | 
[V:2] z8 | 
[V:3] A2G2F4 | 
[V:4] z8 | 
[V:1] E8 ||  
[V:2] z8 ||  
[V:3] E8 ||  
[V:4] z8 ||  



